src/icons_unused/hds/ui/lock-open.svg

<svg xmlns="http://www.w3.org/2000/svg" width="24" height="24" viewBox="0 0 24 24">
  <g fill="none" fill-rule="evenodd">
    <rect width="24" height="24"/>
    <path fill="currentColor" d="M17,2 C19.71462,2 21.9239659,4.16333539 21.9980791,6.86004758 L22,7 L22,9 L20,9 L20,7 C20,5.34314575 18.6568542,4 17,4 C15.3808015,4 14.0612141,5.28278744 14.0020692,6.88753087 L14,7 L14,9 L16,9 L16,22 L2,22 L2,9 L12,9 L12,7 C12,4.23857625 14.2385763,2 17,2 Z M14,11 L4,11 L4,20 L14,20 L14,11 Z M10,13 L10,18 L8,18 L8,13 L10,13 Z"/>
  </g>
</svg>

<svg viewBox="0 0 24 24" role="img" xmlns="http://www.w3.org/2000/svg"><g fill="none" fill-rule="evenodd"><path d="M0 0h24v24H0z"/><path d="M17 2a5 5 0 014.998 4.86L22 7v2h-2V7a3 3 0 00-5.998-.112L14 7v2h2v13H2V9h10V7a5 5 0 015-5zm-3 9H4v9h10v-9zm-4 2v5H8v-5h2z" fill="currentColor"/></g></svg>
